X:1
T: Inver Lassies
R:Reel
Q: 232
K:A
M:4/4
L:1/8
|:f|e2 cA d2 df|e2 cA dB Ba|e2 cA d2 df|ed cB cA Af|
e2 cA d2 df|e2 cA dB Ba|e2 cA d2 df|ed cB cA Ag|
a2 ec d2 fd|a2 ec fB Bg|a2 ec d2 fd|ed cB cA Ag|
a2 ec d2 fd|a2 ec fB Bg|af ec de fa|ed cB cA A:|
